Papirus/22x22/panel/system-file-manager-panel.svg

<svg xmlns="http://www.w3.org/2000/svg" width="22" height="22" version="1">
 <defs>
  <style id="current-color-scheme" type="text/css">
   .ColorScheme-Text { color:#dfdfdf; } .ColorScheme-Highlight { color:#4285f4; }
  </style>
 </defs>
 <path style="fill:currentColor" class="ColorScheme-Text" d="m 6,2.9999998 c -0.554,0 -1,0.446 -1,1 L 5,6.0000002 C 5,5.4459998 5.446,4.9999998 6,4.9999998 l 10,0 c 0.554,0 1,0.446 1,1.0000004 l 0,-2.0000004 c 0,-0.554 -0.446,-1 -1,-1 z m 0,3.0000004 c -0.554,0 -1,0.446 -1,1 l 0,1 12,0 0,-1 c 0,-0.554 -0.446,-1 -1,-1 z m -2,3 c -0.554,0 -1,0.446 -1,0.9999998 l 0,8 c 0,0.554 0.446,1 1,1 l 14,0 c 0.554,0 1,-0.446 1,-1 l 0,-8 C 19,9.4460002 18.554,9.0000002 18,9.0000002 Z M 9.25,13 l 3.5,0 c 0.139,0 0.25,0.111 0.25,0.25 l 0,0.5 C 13,13.889 12.888,14 12.75,14 l -3.5,0 C 9.111,14 9,13.889 9,13.75 l 0,-0.5 C 9,13.111 9.112,13 9.25,13 Z"/>
</svg>

<svg xmlns="http://www.w3.org/2000/svg" width="22" height="22" version="1">
 <defs>
  <style id="current-color-scheme" type="text/css">
   .ColorScheme-Text { color:#dfdfdf; } .ColorScheme-Highlight { color:#4285f4; }
  </style>
 </defs>
 <path style="fill:currentColor" class="ColorScheme-Text" d="M 8 3 C 7.446 3 7 3.446 7 4 L 7 5 L 15 5 L 15 4 C 15 3.446 14.554 3 14 3 L 8 3 z M 6 6 C 5.446 6 5 6.446 5 7 L 5 8 L 17 8 L 17 7 C 17 6.446 16.554 6 16 6 L 6 6 z M 4 9 C 3.446 9 3 9.4460002 3 10 L 3 18 C 3 18.554 3.446 19 4 19 L 18 19 C 18.554 19 19 18.554 19 18 L 19 10 C 19 9.4460002 18.554 9 18 9 L 4 9 z M 9.25 13 L 12.75 13 C 12.889 13 13 13.111 13 13.25 L 13 13.75 C 13 13.889 12.888 14 12.75 14 L 9.25 14 C 9.111 14 9 13.889 9 13.75 L 9 13.25 C 9 13.111 9.112 13 9.25 13 z"/>
</svg>
